X: 1
%%topspace .5cm
T: Lanigan's Ball
C: J-12
M: 6/8
Z: Transcribed to abc by Mary Lou Knack
R: jig
K: Em
"Em"E2F G2A| B2A B^cd| "D"DED F2G| AdB AFD|
"Em"E2F G2A| B2A B^cd| edB "Am"cBA| "Em"BGE E3 :|
|:\
"Em"e2f g2e| "D"fag fed| "Em"e2f g2e| "Bm"fdB B2B|
"Em"e2f g2e| "D"fag fed| "Em"edB "Am"cBA| "Em"BGE E3 :|
%%text 9/1/98
